X:30 
T:Croagh Lasses* (hornpipe), The 
B:NFID.108b("untitled highland")
F:file ID nfid/030croagh
Z:bill@capeirish.com
S:SD
Q:150
L:1/8
M:C|
R:hornpipe
K:G
G2GD G2 (3ABc|G2G2 EDEF|G2GD G2AB|cAGE DcBA|
G2GD G2 (3ABc|G2G2 EDEF|G2GD G2AB|cAGE D2Bc||
d2dc d2 (3efg|d2d2 BABc|d2dc d2d2|cAGE D2Bc|
d2dc d2 (3efg|d2d2 (3cBA Bc|d2dc d2cd|cAGE DcBA|G8|]

